!!!OTL: "Das guelden ABC" ALLEIN AUF GOTT HOFF UND VERTRAU
!!!ARE: Europa, Mitteleuropa, Deutschland, Niederrhein
!!!SCT: Z1275
!!!YEM: Copyright 1995, estate of Helmut Schaffrath.
**kern
*ICvox
*Ivox
*M4/4
*k[b-e-]
*g:
{4r
4g
4g
4g
=1
2d
2a
=2
4b-
8a
8g
2f#}
=3
{4r
4d
4e
4f#
=4
2g
2e
=5
4f#
4a
2g}
=6
{4r
4a
4a
4a
=7
2a
2fn
=8
4g
4a
2b-}
=9
{2cc
4b-
4a
=10
4g
2f#
4r}
=11
{4r
4d
4e
4f#
=12
2g
2e
=13
4f#
4a
2g}
==
!!!AGN: Natur und Welt, Religion
!!!ONB: ESAC (Essen Associative Code) Database: ZUCCAL
!!!AMT: simple quadruple
!!!AIN: vox
!!!EED: Helmut Schaffrath
!!!EEV: 1.0
*-
